icon-themes/sifr_svg/cmd/lc_alignleft.svg

<svg viewBox="0 0 24 24" xmlns="http://www.w3.org/2000/svg"><path d="m2 4v2h20v-2zm0 5v2h16v-2zm0 5v2h20v-2zm0 5v2h12v-2z" fill="#555753"/></svg>

<svg xmlns="http://www.w3.org/2000/svg" viewBox="0 0 24 24">
  <path
     style="fill:#555753"
     d="M 2 4 L 2 6 L 22 6 L 22 4 L 2 4 z M 2 9 L 2 11 L 18 11 L 18 9 L 2 9 z M 2 14 L 2 16 L 22 16 L 22 14 L 2 14 z M 2 19 L 2 21 L 14 21 L 14 19 L 2 19 z "
     />
</svg>
